X:321
T:Jackson's Mistake
R:jig
D:Shaskeen: 25th Silver Jubilee Collection
Z:id:hn-jig-321
M:6/8
K:G
~G3 AGA|Bgg gdB|GFG ~A3|BGE EDE|
~G3 AGA|Bgg gdB|cBA BGE|1 GAG G2D:|2 GAG G2d||
|:~g3 efg|afd edB|~g3 efg|afd def|1 ~g3 efg|afd edB|
cBA BGE|GAG G2d:|2 gfe agf|gfe edB|cBA BGE|GAG G2D||

